X:1
T:The Hag at the Churn
M:6/8
L:1/8
R:jig
K:Dmix
"D"A2G ADD|"D"A2G "Am"Adc|"D"A2G ADD|"C"EFG EFG|
  "D"A2G ADD|"D"A2G "Am"Adc|"D"A2G ADD|"C"EFG EFG:|
|:"D"AdB "C"c3|"D"Add "Am"efg|"D"AdB "C"c3|"Em"GEG "Am"AED|
"D"AdB "C"c3|"D"Add "C"efg|"D"age dcA|["Normal""Am"GEG "D"AED:|["Trans"Az2"E7"e3||

